X:229
T:The Wise Maid
T:All Around the World
M:4/4
L:1/8
R:reel
C:John Doherty
Z:id:hn-reel-40
K:D
F2FG FEDE|FAAB AFED|d2 (3efg fdec|dBAF BE~E2|
F2FG FEDE|FAAB AFED|d2 (3efg fdec|1 dBAG FD ~D2:|2 dBAG FDFA||
|:d2AG FDFA|dfaf gfeg|fAdf eAce|dfed cA~A2|
BDGB ADFA|dfaf gfed|(3Bcd ec dBAG|1 FGEF DEFA:|2 FGEG FDDE||
